X: 20643
T: John Stenson's
R: reel
M: 4/4
K: Amajor
|:ABcA B2cB|ABcA BAFB|ABcA B2cf|eAcA BAFA|
ABcA B2cB|ABcA BAFA|d2dc dfed|1 cdBc A2cB:|2 cdBc ABcd||
|:e2cd edcd|e2cA BAFA|e2cd edcA|BdcA BAFA|
e2cd edcd|e2cA BAFA|1 cdBc ABcd:|2 cdBc A2cB||

